X:352
T: ICH HAB MEINEN WEIZEN AM BERGE GESAET
N: E0980
O: Europa, Mitteleuropa, Deutschland
R: Tanz - Lied, Reigen; Besenbinder - Lied
M: 3/8
L: 1/16
K: D
D,2 | D,2F,2A,2 | D3CB,2 | B,3A,A,2 | B,3A,A,2 |
F,2F,2F,2 | A,3E,E,2 | G,3F,F,2 | G,3F,F,2 |
D,2F,2A,2 | D4F2 | E4C2 | D4

@@@ Tune index: 4665
